tiktok-icon.svg

<svg width="50" height="58" viewBox="0 0 50 58" fill="none" xmlns="http://www.w3.org/2000/svg">
<g clip-path="url(#clip0_48_74)">
<path d="M42.5309 11.6252C39.4426 9.58827 37.2144 6.32803 36.5191 2.52986C36.3689 1.70946 36.2855 0.864294 36.2855 0H26.429L26.4123 39.9612C26.2476 44.4369 22.6065 48.028 18.1433 48.028C16.756 48.028 15.45 47.678 14.2997 47.0647C11.662 45.6613 9.85649 42.8647 9.85649 39.6473C9.85649 35.0253 13.5744 31.2643 18.1422 31.2643C18.9954 31.2643 19.8131 31.4072 20.5863 31.6514V21.4723C19.7853 21.3609 18.9721 21.2934 18.1422 21.2934C8.13884 21.2934 0 29.5256 0 39.6473C0 45.856 3.06597 51.3512 7.74613 54.6734C10.692 56.7677 14.2774 58 18.1433 58C28.1477 58 36.2855 49.7667 36.2855 39.6473V19.3825C40.1513 22.1892 44.8882 23.8435 50 23.8435V13.8715C47.2466 13.8715 44.6824 13.0443 42.5309 11.6252Z" fill="#6496A7"/>
</g>
<defs>
<clipPath id="clip0_48_74">
<rect width="50" height="58" fill="white"/>
</clipPath>
</defs>
</svg>

<?xml version="1.0" encoding="utf-8"?>
<!-- Generator: Adobe Illustrator 28.3.0, SVG Export Plug-In . SVG Version: 6.00 Build 0)  -->
<svg version="1.1" id="Layer_1" xmlns="http://www.w3.org/2000/svg" xmlns:xlink="http://www.w3.org/1999/xlink" x="0px" y="0px"
	 viewBox="0 0 50 58" style="enable-background:new 0 0 50 58;" xml:space="preserve">
<style type="text/css">
	.st0{clip-path:url(#SVGID_00000119107507614739378200000006636310888750837947_);}
	.st1{fill:#6DA8B9;}
</style>
<g>
	<defs>
		<rect id="SVGID_1_" width="50" height="58"/>
	</defs>
	<clipPath id="SVGID_00000137096088099786340430000006897130908592915374_">
		<use xlink:href="#SVGID_1_"  style="overflow:visible;"/>
	</clipPath>
	<g style="clip-path:url(#SVGID_00000137096088099786340430000006897130908592915374_);">
		<path class="st1" d="M42.5,11.6c-3.1-2-5.3-5.3-6-9.1c-0.2-0.8-0.2-1.7-0.2-2.5h-9.9l0,40c-0.2,4.5-3.8,8.1-8.3,8.1
			c-1.4,0-2.7-0.3-3.8-1c-2.6-1.4-4.4-4.2-4.4-7.4c0-4.6,3.7-8.4,8.3-8.4c0.9,0,1.7,0.1,2.4,0.4V21.5c-0.8-0.1-1.6-0.2-2.4-0.2
			C8.1,21.3,0,29.5,0,39.6c0,6.2,3.1,11.7,7.7,15c2.9,2.1,6.5,3.3,10.4,3.3c10,0,18.1-8.2,18.1-18.4V19.4c3.9,2.8,8.6,4.5,13.7,4.5
			v-10C47.2,13.9,44.7,13,42.5,11.6z"/>
	</g>
</g>
</svg>
